X: 25155
T: Maister O' Lour, The
R: march
M: 
K: Amajor
M: 6/8
|:~A2 c B2 A|e2 f e2 c|a2 f e2 c|c2 B/A/ B3|
~A2 c B2 A|f2 a f2 e|a2 f e2 c|d2 c/B/ A3:|
f2 a e2 a|d2 f e2 c/c/|a2 f e2 c|c2 B/A/ B3|
f2 a e2 a|d2 f e2 c/c/|a2 f e2 c|d2 c/B/ A3|
f2 a e2 a|d2 f e2 c/c/|a2 f e2 c|c2 B/A/ B3|
~A2 c B2 A|f2 a f2 e/e/|a2 f e2 c|d2 c/B/ A3||

